dist/img/svg/icon-title-star.svg

<svg width="16" height="16" viewBox="0 0 16 16" fill="none" xmlns="http://www.w3.org/2000/svg">
<path d="M2.73417 15.0194C2.82572 14.2753 2.9215 13.487 3.01898 12.6986C3.10882 11.9766 3.19698 11.2537 3.29446 10.5326C3.31904 10.3513 3.22664 10.2442 3.12323 10.1292C2.2078 9.11608 1.2983 8.09768 0.377773 7.09078C0.105685 6.7926 -0.087574 6.48292 0.0404176 6.05645C0.167562 5.63174 0.483726 5.48487 0.879568 5.41143C2.16033 5.17165 3.43431 4.89648 4.71592 4.66466C5.01683 4.6098 5.17703 4.46293 5.31181 4.20014C5.92718 3.00213 6.55866 1.81384 7.17658 0.616713C7.35967 0.261909 7.59701 -0.00176074 8.00641 8.85444e-06C8.4014 0.00177845 8.63535 0.257485 8.81335 0.600786C9.45416 1.83419 10.1068 3.06141 10.7451 4.29659C10.857 4.51336 11.0019 4.60803 11.2342 4.65227C12.5768 4.90444 13.9169 5.16988 15.2562 5.44151C15.9902 5.59104 16.2419 6.38471 15.7334 6.95717C14.812 7.99415 13.8822 9.02406 12.9447 10.0451C12.7514 10.2557 12.687 10.4495 12.7285 10.7494C12.9209 12.1253 13.0837 13.5056 13.2532 14.885C13.299 15.2575 13.2261 15.5919 12.9142 15.8264C12.5929 16.0679 12.2691 16.0281 11.9275 15.8547C10.7366 15.253 9.53807 14.6673 8.348 14.0639C8.10897 13.9426 7.91402 13.9391 7.66651 14.0656C6.51628 14.6531 5.35419 15.2159 4.19633 15.7875C3.99544 15.8865 3.79371 15.9945 3.56654 15.9998C3.09781 16.0104 2.72655 15.5875 2.73417 15.0194ZM2.53668 6.88019C2.61296 6.97841 2.64856 7.03061 2.69095 7.0775C3.36566 7.82604 4.03952 8.57547 4.71592 9.32224C4.91935 9.54698 5.07786 9.79737 5.04057 10.1186C4.91766 11.1706 4.78373 12.2199 4.65405 13.2711C4.64218 13.3649 4.57437 13.4764 4.67524 13.5436C4.75407 13.5958 4.83459 13.5144 4.90834 13.4781C5.7602 13.0579 6.61291 12.6393 7.46054 12.2111C7.83095 12.0244 8.17848 12.0226 8.55313 12.2164C9.39737 12.6526 10.2526 13.0658 11.1045 13.4861C11.1774 13.5224 11.2562 13.6002 11.3376 13.5365C11.4037 13.4843 11.3656 13.3941 11.3562 13.318C11.2325 12.3111 11.1257 11.3015 10.9799 10.2982C10.9214 9.89293 11.035 9.59033 11.2935 9.30985C11.858 8.6958 12.4175 8.07644 12.9769 7.45797C13.1329 7.28543 13.2837 7.1067 13.477 6.88373C12.3929 6.66961 11.3774 6.46169 10.3594 6.27322C9.99918 6.20686 9.73387 6.03787 9.55841 5.6981C9.08629 4.78411 8.60653 3.87365 8.12593 2.96408C8.09033 2.89595 8.08778 2.78624 7.96742 2.77739C7.46901 3.72678 6.96129 4.67085 6.47729 5.62732C6.28658 6.00424 6.01449 6.20067 5.61865 6.27411C4.60912 6.46169 3.60299 6.66961 2.53668 6.88019Z" fill="black"/>
</svg>

<svg width="16" height="16" viewBox="0 0 16 16" fill="none" xmlns="http://www.w3.org/2000/svg"><path d="M2.734 15.02l.285-2.321c.09-.722.178-1.445.275-2.166.025-.182-.067-.289-.17-.404C2.207 9.116 1.297 8.098.377 7.091.106 6.793-.088 6.483.04 6.056c.128-.424.444-.571.84-.645 1.28-.24 2.554-.515 3.836-.746.3-.055.461-.202.596-.465.615-1.198 1.247-2.386 1.865-3.583.183-.355.42-.619.83-.617.394.002.628.257.806.6.641 1.234 1.294 2.461 1.932 3.697.112.216.257.311.49.355 1.342.252 2.682.518 4.021.79.734.149.986.943.477 1.515a254.983 254.983 0 01-2.788 3.088c-.194.21-.258.405-.216.704.192 1.376.355 2.757.524 4.136.046.373-.027.707-.339.941-.321.242-.645.202-.986.029-1.191-.602-2.39-1.188-3.58-1.791a.671.671 0 00-.681.002c-1.15.587-2.313 1.15-3.47 1.721-.202.1-.403.207-.63.213-.47.01-.84-.412-.833-.98zm-.197-8.14c.076.098.112.15.154.197.675.749 1.349 1.498 2.025 2.245.203.225.362.475.325.797-.123 1.052-.257 2.1-.387 3.152-.012.094-.08.205.021.273.08.052.16-.03.233-.066.852-.42 1.705-.839 2.553-1.267.37-.187.717-.188 1.092.005.844.437 1.7.85 2.551 1.27.073.036.152.114.234.05.066-.052.028-.142.018-.218-.123-1.007-.23-2.016-.376-3.02-.059-.405.055-.708.313-.988.565-.614 1.125-1.234 1.684-1.852.156-.173.307-.351.5-.574-1.084-.214-2.1-.422-3.118-.61-.36-.067-.625-.236-.8-.576-.473-.914-.952-1.824-1.433-2.734-.036-.068-.038-.178-.159-.187-.498.95-1.006 1.894-1.49 2.85-.19.377-.463.574-.858.647-1.01.188-2.016.396-3.082.606z" fill="#000"/></svg>
